X:50
T:New Gipsey Hornpipe. JBu.50
O:England,South Yorkshire
S:Joshua Burnett’s MS,c1835,S.Yorkshire
M:C
L:1/8
Q:1/2=90
R:.hornpipe
Z:vmp.R.Greig.2011
K:G
g2g2g2ag|f<e d2d2cB|(AB)ce (dc)BA|A2G2G2D2|
(EG)FA (GB)Ac|(BG)AB (cd)ef|(gb)ag (fe)dc|e2d2d2:|
|:AB|d2d2edcB|cGEGC2cB|(AB)cA (ag)fe|dcBA G2D2|
(EG)FA (GB)Ac|(BG)AB (cd)ef|(gb)ag (fe)dc|B2G2G2:|

